src/images/icon-adv-3.svg

<svg width="80" height="81" viewBox="0 0 80 81" fill="none" xmlns="http://www.w3.org/2000/svg">
<path d="M45.0996 7.99998C45.0996 12.1 41.7996 15.4 37.6996 15.4C33.4996 15.4 30.1996 12 30.2996 7.79998C30.2996 3.69998 33.6996 0.599976 37.7996 0.599976C41.8996 0.599976 45.1996 3.89998 45.0996 7.99998Z" fill="white"/>
<path d="M26.1998 41.9C26.1998 40.4 26.0998 38.8 26.1998 37.2C26.1998 36.9 26.6998 36.4 27.0998 36.3C31.7998 34.5 36.5998 34.2 41.3998 35.5C51.7998 38.2 58.3998 48 57.8998 57.9C57.3998 68.6 49.8998 77.1999 39.3998 79.1999C30.5998 80.7999 21.3998 76.7999 16.4998 69.0999C11.6998 61.4999 11.7998 51.5 16.6998 44.7C18.0998 45.6 19.3998 46.5 20.7998 47.4C18.0998 51.6 17.1998 56.2999 18.4998 61.5C19.4998 65.5 21.6998 68.6999 24.9998 71.0999C31.6998 76 40.7998 75.5999 46.9998 70C53.1998 64.4 54.5998 55.4 50.3998 48.2C49.1998 46.2 47.6998 44.2999 45.6998 43.0999C43.7998 41.9 41.6998 40.7 39.5998 40.2C37.3998 39.7 34.9998 39.6 32.6998 39.9C30.6998 40.2 28.4998 41.2 26.1998 41.9Z" fill="white"/>
<path d="M44.5999 35.4C39.8999 33.5 35.1999 33.1 30.1999 34.2C30.1999 31.9 30.1999 29.8 30.1999 27.6C30.0999 27.5 29.9999 27.5 29.8999 27.4C28.2999 29 26.5999 30.5 25.2999 32.4C24.6999 33.2 25.1999 34.7 25.1999 35.9C25.1999 38.1 25.2999 40.3999 25.1999 42.5999C25.0999 44.3999 23.2999 45.9 21.3999 45.9C19.5999 45.9 17.6999 44.5 17.5999 42.7999C17.3999 38.6999 17.3999 34.5999 17.3999 30.4C17.3999 29.5 17.9999 28.5 18.5999 27.9C21.8999 24.4 25.1999 20.9 28.6999 17.5C29.3999 16.8 30.5999 16.3 31.6999 16.2C33.6999 16 35.6999 16.1 37.6999 16.1C41.1999 16.1 44.3999 19.1 44.4999 22.6C44.5999 26.9 44.5999 31 44.5999 35.4Z" fill="white"/>
<path d="M54 42.4C55.4 42.5 56.7 42.5 58 42.7C59.3 42.9 60.1 43.9 60.5 45.2C62.6 52 64.6 58.7 66.6 65.5C67.5 68.4 66.6 69.8 63.6 70.6C61.2 71.3 59.3 70.2 58.5 67.7C57.9 66.1 57.8 64.5 58.3 62.8C60 55.9 58.9 49.4 54.8 43.6C54.6 43.4 54.5 43.1 54.3 42.9C54.2 42.9 54.1 42.8 54 42.4Z" fill="white"/>
</svg>

<svg xmlns="http://www.w3.org/2000/svg" width="80" height="81" fill="none" viewBox="0 0 80 81">
	<path fill="#fff" d="M45.1 8c0 4.1-3.3 7.4-7.4 7.4-4.2 0-7.5-3.4-7.4-7.6 0-4.1 3.4-7.2 7.5-7.2s7.4 3.3 7.3 7.4zM26.2 41.9c0-1.5-.1-3.1 0-4.7 0-.3.5-.8.9-.9 4.7-1.8 9.5-2.1 14.3-.8 10.4 2.7 17 12.5 16.5 22.4-.5 10.7-8 19.3-18.5 21.3-8.8 1.6-18-2.4-22.9-10.1-4.8-7.6-4.7-17.6.2-24.4 1.4.9 2.7 1.8 4.1 2.7-2.7 4.2-3.6 8.9-2.3 14.1 1 4 3.2 7.2 6.5 9.6 6.7 4.9 15.8 4.5 22-1.1 6.2-5.6 7.6-14.6 3.4-21.8-1.2-2-2.7-3.9-4.7-5.1-1.9-1.2-4-2.4-6.1-2.9-2.2-.5-4.6-.6-6.9-.3-2 .3-4.2 1.3-6.5 2z"/>
	<path fill="#fff" d="M44.6 35.4c-4.7-1.9-9.4-2.3-14.4-1.2v-6.6c-.1-.1-.2-.1-.3-.2-1.6 1.6-3.3 3.1-4.6 5-.6.8-.1 2.3-.1 3.5 0 2.2.1 4.5 0 6.7-.1 1.8-1.9 3.3-3.8 3.3-1.8 0-3.7-1.4-3.8-3.1-.2-4.1-.2-8.2-.2-12.4 0-.9.6-1.9 1.2-2.5 3.3-3.5 6.6-7 10.1-10.4.7-.7 1.9-1.2 3-1.3 2-.2 4-.1 6-.1 3.5 0 6.7 3 6.8 6.5.1 4.3.1 8.4.1 12.8zM54 42.4c1.4.1 2.7.1 4 .3 1.3.2 2.1 1.2 2.5 2.5 2.1 6.8 4.1 13.5 6.1 20.3.9 2.9 0 4.3-3 5.1-2.4.7-4.3-.4-5.1-2.9-.6-1.6-.7-3.2-.2-4.9 1.7-6.9.6-13.4-3.5-19.2-.2-.2-.3-.5-.5-.7-.1 0-.2-.1-.3-.5z"/>
</svg>
